svgs/light/face-grin-beam-sweat.svg

<svg xmlns="http://www.w3.org/2000/svg" viewBox="0 0 512 512"><!--! Font Awesome Pro 6.5.1 by @fontawesome - https://fontawesome.com License - https://fontawesome.com/license (Commercial License) Copyright 2023 Fonticons, Inc. --><path d="M432.2 68.6c-5.4 8.5-9.8 16.4-12.8 23.1c-2.6 5.8-3.2 8.8-3.4 9.6c0 .2 0 .2 0 .1c0 12.2 11.7 26.7 32 26.7s32-14.5 32-26.7c0 .1 0 .1 0-.1c-.2-.7-.8-3.7-3.4-9.5c-3-6.7-7.4-14.6-12.8-23.1c-5-7.9-10.5-15.8-15.8-23c-5.3 7.2-10.8 15.1-15.8 23zm7.3-64.5c4.3-5.5 12.8-5.5 17.1 0C473.9 25.8 512 76.3 512 101.3c0 32.5-28.7 58.7-64 58.7s-64-26.2-64-58.7c0-25 37.9-75.5 55.5-97.2zM256 32C132.3 32 32 132.3 32 256s100.3 224 224 224s224-100.3 224-224c0-20.7-2.8-40.7-8.1-59.7c-2.4-8.5 2.6-17.3 11.2-19.7s17.3 2.6 19.7 11.2c6 21.7 9.2 44.6 9.2 68.3c0 141.4-114.6 256-256 256S0 397.4 0 256S114.6 0 256 0c43.1 0 83.8 10.7 119.5 29.5c7.8 4.1 10.8 13.8 6.7 21.6S368.3 62 360.5 57.8C329.3 41.3 293.8 32 256 32zm90 313.8c-28.5 5.4-58.7 8.3-89.9 8.3s-61.4-2.9-89.9-8.3c22.6 23.6 54.5 38.3 89.9 38.3s67.3-14.7 89.9-38.3zm33.8-41.1c12.3-3.7 24.2 7 19.1 18.7c-24.1 54.6-79 92.7-142.8 92.7s-118.7-38.1-142.8-92.7c-5.2-11.7 6.8-22.4 19.1-18.7c37.3 11.1 79.3 17.4 123.8 17.4s86.4-6.3 123.8-17.4zM143.5 219.9c-2.1 8.6-10.8 13.8-19.4 11.6s-13.8-10.8-11.6-19.4c3.2-12.7 9.8-27.1 19.9-38.6C142.4 161.9 157.2 152 176 152s33.6 9.9 43.7 21.5c10 11.5 16.7 25.9 19.9 38.6c2.1 8.6-3.1 17.3-11.6 19.4s-17.3-3.1-19.4-11.6c-2.1-8.6-6.7-18.2-12.9-25.4c-6.2-7.1-12.8-10.5-19.5-10.5s-13.4 3.4-19.5 10.5c-6.2 7.2-10.8 16.8-12.9 25.4zm172.9-25.4c-6.2 7.2-10.8 16.8-12.9 25.4c-2.1 8.6-10.8 13.8-19.4 11.6s-13.8-10.8-11.6-19.4c3.2-12.7 9.8-27.1 19.9-38.6C302.4 161.9 317.2 152 336 152s33.6 9.9 43.7 21.5c10 11.5 16.7 25.9 19.9 38.6c2.1 8.6-3.1 17.3-11.6 19.4s-17.3-3.1-19.4-11.6c-2.1-8.6-6.7-18.2-12.9-25.4c-6.2-7.1-12.8-10.5-19.5-10.5s-13.4 3.4-19.5 10.5z"/></svg>

<svg xmlns="http://www.w3.org/2000/svg" viewBox="0 0 512 512"><!--! Font Awesome Pro 6.1.1 by @fontawesome - https://fontawesome.com License - https://fontawesome.com/license (Commercial License) Copyright 2022 Fonticons, Inc. --><path d="M439.5 4.102C443.7-1.367 452.3-1.367 456.5 4.101C473.9 25.81 512 76.27 512 101.3C512 133.8 483.3 160 448 160C412.7 160 384 133.8 384 101.3C384 76.27 421.9 25.81 439.5 4.102V4.102zM419.4 91.62C416.8 97.47 416.2 100.5 416 101.2C416 101.4 416 101.4 416 101.3C416 113.5 427.7 128 448 128C468.3 128 480 113.5 480 101.3C480 101.4 479.1 101.4 479.1 101.2C479.8 100.5 479.2 97.47 476.6 91.66C473.6 85 469.2 77.1 463.8 68.58C458.8 60.67 453.3 52.77 447.1 45.53C442.7 52.76 437.2 60.66 432.2 68.56C426.8 77.07 422.4 84.97 419.4 91.62H419.4zM256 32C132.3 32 32 132.3 32 256C32 379.7 132.3 480 256 480C379.7 480 480 379.7 480 256C480 235.3 477.2 215.3 471.9 196.3C469.6 187.7 474.6 178.9 483.1 176.6C491.6 174.2 500.4 179.2 502.8 187.7C508.8 209.5 512 232.4 512 256C512 397.4 397.4 512 256 512C114.6 512 0 397.4 0 256C0 114.6 114.6 .0003 256 .0003C299.1 .0003 339.8 10.67 375.5 29.54C383.3 33.67 386.3 43.35 382.1 51.16C378 58.97 368.3 61.96 360.5 57.83C329.3 41.34 293.8 32 255.1 32L256 32zM379.8 304.7C392.1 301.1 404 311.8 398.9 323.5C374.8 378 319.9 416.1 256 416.1C192.2 416.1 137.3 378 113.2 323.5C108.1 311.8 120 301.1 132.3 304.7C169.6 315.9 211.6 322.1 256 322.1C300.5 322.1 342.5 315.9 379.8 304.7V304.7zM345.1 345.8C317.4 351.3 287.2 354.1 256 354.1C224.9 354.1 194.7 351.3 166.1 345.8C188.7 369.4 220.6 384.1 256 384.1C291.5 384.1 323.4 369.4 345.1 345.8zM124.1 231.5C115.5 229.4 110.3 220.7 112.5 212.1C115.7 199.4 122.3 185 132.3 173.5C142.4 161.9 157.2 152 176 152C194.8 152 209.6 161.9 219.7 173.5C229.7 185 236.3 199.4 239.5 212.1C241.7 220.7 236.5 229.4 227.9 231.5C219.3 233.7 210.6 228.5 208.5 219.9C206.3 211.3 201.8 201.7 195.5 194.5C189.4 187.4 182.8 184 176 184C169.2 184 162.6 187.4 156.5 194.5C150.2 201.7 145.7 211.3 143.5 219.9C141.4 228.5 132.7 233.7 124.1 231.5V231.5zM316.5 194.5C310.2 201.7 305.7 211.3 303.5 219.9C301.4 228.5 292.7 233.7 284.1 231.5C275.5 229.4 270.3 220.7 272.5 212.1C275.7 199.4 282.3 185 292.3 173.5C302.4 161.9 317.2 152 336 152C354.8 152 369.6 161.9 379.7 173.5C389.7 185 396.3 199.4 399.5 212.1C401.7 220.7 396.5 229.4 387.9 231.5C379.3 233.7 370.6 228.5 368.5 219.9C366.3 211.3 361.8 201.7 355.5 194.5C349.4 187.4 342.8 184 336 184C329.2 184 322.6 187.4 316.5 194.5H316.5z"/></svg>
